X: 30404
T: MASON'S LADDIE
T: Mason's Apron
C:
%R: reel
B: Elias Howe "The Musician's Companion" Part 3 1844 p.40 #4
S: http://imslp.org/wiki/The_Musician's_Companion_(Howe,_Elias)
S: https://archive.org/stream/firstthirdpartof03howe/#page/66/mode/1up
Z: 2016 John Chambers <jc:trillian.mit.edu>
N: The final note is clearly B, but it's usually A as in the first strain.
M: 2/4
L: 1/16
K: A
% - - - - - - - - - - - - - - - - - - - - - - - - -
(ed) |\
(3cAAA2 ABAF | EFAB c2Bc | (3dBBB2 BcBA | Bcde fgaf |\
(3cAAA2 ABAF | EFAB c2BA | dcde fgaf ecdB A2 :|
|: (ed) |\
cAeA fAcA | cAec fAcA | dBfB gBeB | dBfB afed |\
cAeA fAcA | cAdc fedc | dcde fgaf | ecdB B2 :|
% - - - - - - - - - - - - - - - - - - - - - - - - -
